;FLAVOR:Marlin
;TIME:27128
;Filament used: 19.8299m
;Layer height: 0.2
;MINX:3.96
;MINY:45.39
;MINZ:0.2
;MAXX:216.04
;MAXY:174.61
;MAXZ:10
;Generated with Cura_SteamEngine 5.3.0
M140 S50
M105
M190 S50
M104 S200
M105
M109 S200
M82 ;absolute extrusion mode
; Ender 3 Custom Start G-code
G92 E0 ; Reset Extruder
G28 ; Home all axes
G1 Z2.0 F3000 ; Move Z Axis up little to prevent scratching of Heat Bed
G1 X0.1 Y20 Z0.3 F5000.0 ; Move to start position
G1 X0.1 Y200.0 Z0.3 F1500.0 E15 ; Draw the first line
G1 X0.4 Y200.0 Z0.3 F5000.0 ; Move to side a little
G1 X0.4 Y20 Z0.3 F1500.0 E30 ; Draw the second line
G92 E0 ; Reset Extruder
G1 Z2.0 F3000 ; Move Z Axis up little to prevent scratching of Heat Bed
G1 X5 Y20 Z0.3 F5000.0 ; Move over to prevent blob squish
G92 E0
G92 E0
G1 F2700 E-5
;LAYER_COUNT:50
;LAYER:0
M107
G0 F6000 X9.304 Y45.39 Z0.2
;TYPE:SKIRT
G1 F2700 E0
G1 F1200 X210.861 Y45.39 E6.70381
G1 X212.276 Y45.738 E6.75228
G1 X213.791 Y46.524 E6.80905
G1 X214.88 Y47.689 E6.86209
G1 X215.711 Y49.086 E6.91615
G1 X216.04 Y50.734 E6.97204
G1 X216.04 Y169.431 E10.91992
G1 X215.692 Y170.846 E10.96839
G1 X214.906 Y172.361 E11.02515
G1 X213.741 Y173.45 E11.0782
G1 X212.344 Y174.281 E11.13226
G1 X210.696 Y174.61 E11.18815
G1 X9.139 Y174.61 E17.89197
G1 X7.724 Y174.262 E17.94043
G1 X6.209 Y173.476 E17.9972
G1 X5.12 Y172.311 E18.05024
G1 X4.289 Y170.914 E18.1043
G1 X3.96 Y169.266 E18.1602
G1 X3.96 Y50.569 E22.10808
G1 X4.308 Y49.154 E22.15654
G1 X5.094 Y47.639 E22.21331
G1 X6.259 Y46.55 E22.26635
G1 X7.656 Y45.719 E22.32041
G1 X9.304 Y45.39 E22.37631
G0 F6000 X9.342 Y45.79
G1 F1200 X210.815 Y45.79 E29.07733
G1 X212.133 Y46.114 E29.12247
G1 X213.546 Y46.847 E29.17541
G1 X214.556 Y47.928 E29.22462
G1 X215.333 Y49.234 E29.27516
G1 X215.64 Y50.772 E29.32732
G1 X215.64 Y169.385 E33.27241
G1 X215.316 Y170.703 E33.31755
G1 X214.583 Y172.116 E33.37049
G1 X213.502 Y173.126 E33.4197
G1 X212.196 Y173.903 E33.47024
G1 X210.658 Y174.21 E33.52241
G1 X9.185 Y174.21 E40.22343
G1 X7.867 Y173.886 E40.26857
G1 X6.454 Y173.153 E40.32151
G1 X5.444 Y172.072 E40.37072
G1 X4.667 Y170.766 E40.42126
G1 X4.36 Y169.228 E40.47343
G1 X4.36 Y50.615 E44.41851
G1 X4.684 Y49.297 E44.46365
G1 X5.417 Y47.884 E44.5166
G1 X6.498 Y46.874 E44.5658
G1 X7.804 Y46.097 E44.61634
G1 X9.342 Y45.79 E44.66851
G0 F6000 X9.38 Y46.19
G1 F1200 X210.769 Y46.19 E51.36673
G1 X211.99 Y46.49 E51.40855
G1 X213.301 Y47.17 E51.45767
G1 X214.232 Y48.167 E51.50304
G1 X214.955 Y49.382 E51.55007
G1 X215.24 Y50.81 E51.5985
G1 X215.24 Y169.339 E55.54079
G1 X214.94 Y170.56 E55.58261
G1 X214.26 Y171.871 E55.63173
G1 X213.263 Y172.802 E55.6771
G1 X212.048 Y173.525 E55.72412
G1 X210.62 Y173.81 E55.77256
G1 X9.231 Y173.81 E62.47078
G1 X8.01 Y173.51 E62.5126
G1 X6.699 Y172.83 E62.56172
G1 X5.768 Y171.833 E62.60709
G1 X5.045 Y170.618 E62.65412
G1 X4.76 Y169.19 E62.70255
G1 X4.76 Y50.661 E66.64484
G1 X5.06 Y49.44 E66.68666
G1 X5.74 Y48.129 E66.73578
G1 X6.737 Y47.198 E66.78115
G1 X7.952 Y46.475 E66.82817
G1 X9.38 Y46.19 E66.8766
G0 F6000 X9.418 Y46.59
G1 F1200 X210.723 Y46.59 E73.57204
G1 X211.847 Y46.866 E73.61053
G1 X213.056 Y47.493 E73.65583
G1 X213.908 Y48.406 E73.69736
G1 X214.577 Y49.53 E73.74087
G1 X214.84 Y50.848 E73.78557
G1 X214.84 Y169.293 E77.72507
G1 X214.564 Y170.417 E77.76356
G1 X213.937 Y171.626 E77.80886
G1 X213.024 Y172.478 E77.85039
G1 X211.9 Y173.147 E77.8939
G1 X210.582 Y173.41 E77.9386
G1 X9.277 Y173.41 E84.63403
G1 X8.153 Y173.134 E84.67253
G1 X6.944 Y172.507 E84.71782
G1 X6.092 Y171.594 E84.75936
G1 X5.423 Y170.47 E84.80286
G1 X5.16 Y169.152 E84.84756
G1 X5.16 Y50.707 E88.78706
G1 X5.436 Y49.583 E88.82556
G1 X6.063 Y48.374 E88.87085
G1 X6.976 Y47.522 E88.91239
G1 X8.1 Y46.853 E88.95589
G1 X9.418 Y46.59 E89.00059
G0 F6000 X9.456 Y46.99
G1 F1200 X210.676 Y46.99 E95.6932
G1 X211.705 Y47.243 E95.72844
G1 X212.809 Y47.815 E95.7698
G1 X213.586 Y48.648 E95.80769
G1 X214.199 Y49.678 E95.84755
G1 X214.44 Y50.886 E95.88852
G1 X214.44 Y169.246 E99.82519
G1 X214.187 Y170.275 E99.86044
G1 X213.615 Y171.379 E99.90179
G1 X212.782 Y172.156 E99.93968
G1 X211.752 Y172.769 E99.97954
G1 X210.544 Y173.01 E100.02051
G1 X9.324 Y173.01 E106.71312
G1 X8.295 Y172.757 E106.74836
G1 X7.191 Y172.185 E106.78972
G1 X6.414 Y171.352 E106.82761
G1 X5.801 Y170.322 E106.86747
G1 X5.56 Y169.114 E106.90844
G1 X5.56 Y50.754 E110.84511
G1 X5.813 Y49.725 E110.88035
G1 X6.385 Y48.621 E110.92171
G1 X7.218 Y47.844 E110.9596
G1 X8.248 Y47.231 E110.99946
G1 X9.456 Y46.99 E111.04043
G0 F6000 X9.494 Y47.39
G1 F1200 X210.63 Y47.39 E117.73024
G1 X211.562 Y47.619 E117.76216
G1 X212.562 Y48.137 E117.79962
G1 X213.264 Y48.89 E117.83386
G1 X213.821 Y49.826 E117.87009
G1 X214.04 Y50.924 E117.90733
G1 X214.04 Y169.2 E121.8412
G1 X213.811 Y170.132 E121.87312
G1 X213.293 Y171.132 E121.91058
G1 X212.54 Y171.834 E121.94482
G1 X211.604 Y172.391 E121.98105
G1 X210.506 Y172.61 E122.01829
G1 X9.37 Y172.61 E128.7081
G1 X8.438 Y172.381 E128.74002
G1 X7.438 Y171.863 E128.77748
G1 X6.736 Y171.11 E128.81172
G1 X6.179 Y170.174 E128.84794
G1 X5.96 Y169.076 E128.88518
G1 X5.96 Y50.8 E132.81906
G1 X6.189 Y49.868 E132.85098
G1 X6.707 Y48.868 E132.88844
G1 X7.46 Y48.166 E132.92268
G1 X8.396 Y47.609 E132.9589
G1 X9.494 Y47.39 E132.99614
G0 F6000 X9.532 Y47.79
G1 F1200 X210.584 Y47.79 E139.68316
G1 X211.419 Y47.995 E139.71176
G1 X212.315 Y48.459 E139.74532
G1 X212.942 Y49.132 E139.77591
G1 X213.443 Y49.974 E139.8085
G1 X213.64 Y50.962 E139.842
G1 X213.64 Y169.154 E143.77309
G1 X213.435 Y169.989 E143.80168
G1 X212.971 Y170.885 E143.83524
G1 X212.298 Y171.512 E143.86584
G1 X211.456 Y172.013 E143.89842
G1 X210.468 Y172.21 E143.93193
G1 X9.416 Y172.21 E150.61895
G1 X8.581 Y172.005 E150.64755
G1 X7.685 Y171.541 E150.68111
G1 X7.058 Y170.868 E150.7117
G1 X6.557 Y170.026 E150.74429
G1 X6.36 Y169.038 E150.77779
G1 X6.36 Y50.846 E154.70888
G1 X6.565 Y50.011 E154.73747
G1 X7.029 Y49.115 E154.77103
G1 X7.702 Y48.488 E154.80163
G1 X8.544 Y47.987 E154.83421
G1 X9.532 Y47.79 E154.86772
G0 F6000 X9.57 Y48.19
G1 F1200 X210.538 Y48.19 E161.55194
G1 X211.276 Y48.371 E161.57722
G1 X212.068 Y48.781 E161.60688
G1 X212.62 Y49.374 E161.63383
G1 X213.065 Y50.122 E161.66277
G1 X213.24 Y51 E161.69255
G1 X213.24 Y169.108 E165.62084
G1 X213.059 Y169.846 E165.64611
G1 X212.649 Y170.638 E165.67577
G1 X212.056 Y171.19 E165.70272
G1 X211.308 Y171.635 E165.73167
G1 X210.43 Y171.81 E165.76145
G1 X9.462 Y171.81 E172.44567
G1 X8.724 Y171.629 E172.47094
G1 X7.932 Y171.219 E172.5006
G1 X7.38 Y170.626 E172.52755
G1 X6.935 Y169.878 E172.5565
G1 X6.76 Y169 E172.58628
G1 X6.76 Y50.892 E176.51456
G1 X6.941 Y50.154 E176.53984
G1 X7.351 Y49.362 E176.5695
G1 X7.944 Y48.81 E176.59645
G1 X8.692 Y48.365 E176.62539
G1 X9.57 Y48.19 E176.65517
G0 F6000 X9.608 Y48.59
G1 F1200 X210.488 Y48.59 E183.33647
G1 X211.137 Y48.749 E183.35869
G1 X211.823 Y49.104 E183.38438
G1 X212.296 Y49.613 E183.40749
G1 X212.687 Y50.27 E183.43292
G1 X212.84 Y51.038 E183.45897
G1 X212.84 Y169.058 E187.38433
G1 X212.681 Y169.707 E187.40655
G1 X212.326 Y170.393 E187.43224
G1 X211.817 Y170.866 E187.45535
G1 X211.16 Y171.257 E187.48078
G1 X210.392 Y171.41 E187.50683
G1 X9.512 Y171.41 E194.18812
G1 X8.863 Y171.251 E194.21035
G1 X8.177 Y170.896 E194.23604
G1 X7.704 Y170.387 E194.25915
G1 X7.313 Y169.73 E194.28458
G1 X7.16 Y168.962 E194.31062
G1 X7.16 Y50.942 E198.23598
G1 X7.319 Y50.293 E198.25821
G1 X7.674 Y49.607 E198.2839
G1 X8.183 Y49.134 E198.30701
G1 X8.84 Y48.743 E198.33244
G1 X9.608 Y48.59 E198.35848
G0 F6000 X9.646 Y48.99
G1 F1200 X210.438 Y48.99 E205.03685
G1 X210.998 Y49.127 E205.05603
G1 X211.578 Y49.427 E205.07775
G1 X211.972 Y49.852 E205.09702
G1 X212.309 Y50.418 E205.11893
G1 X212.44 Y51.076 E205.14125
G1 X212.44 Y169.008 E209.06368
G1 X212.303 Y169.568 E209.08286
G1 X212.003 Y170.148 E209.10457
G1 X211.578 Y170.542 E209.12385
G1 X211.012 Y170.879 E209.14576
G1 X210.354 Y171.01 E209.16807
G1 X9.562 Y171.01 E215.84644
G1 X9.002 Y170.873 E215.86562
G1 X8.422 Y170.573 E215.88734
G1 X8.028 Y170.148 E215.90661
G1 X7.691 Y169.582 E215.92852
G1 X7.56 Y168.924 E215.95084
G1 X7.56 Y50.992 E219.87327
G1 X7.697 Y50.432 E219.89245
G1 X7.997 Y49.852 E219.91416
G1 X8.422 Y49.458 E219.93344
G1 X8.988 Y49.121 E219.95535
G1 X9.646 Y48.99 E219.97766
G0 F6000 X9.684 Y49.39
G1 F1200 X210.388 Y49.39 E226.65311
G1 X210.859 Y49.505 E226.66923
G1 X211.332 Y49.75 E226.68695
G1 X211.648 Y50.091 E226.70241
G1 X211.931 Y50.566 E226.7208
G1 X212.04 Y51.114 E226.73939
G1 X212.04 Y168.958 E230.65889
G1 X211.925 Y169.429 E230.67502
G1 X211.68 Y169.902 E230.69274
G1 X211.339 Y170.218 E230.7082
G1 X210.864 Y170.501 E230.72659
G1 X210.316 Y170.61 E230.74517
G1 X9.612 Y170.61 E237.42061
G1 X9.141 Y170.495 E237.43674
G1 X8.668 Y170.25 E237.45446
G1 X8.352 Y169.909 E237.46992
G1 X8.069 Y169.434 E237.48831
G1 X7.96 Y168.886 E237.50689
G1 X7.96 Y51.042 E241.4264
G1 X8.075 Y50.571 E241.44253
G1 X8.32 Y50.098 E241.46024
G1 X8.661 Y49.782 E241.47571
G1 X9.136 Y49.499 E241.4941
G1 X9.684 Y49.39 E241.51268
G0 F6000 X9.722 Y49.79
G1 F1200 X9.284 Y49.877 E241.52753
G1 X8.9 Y50.106 E241.5424
G1 X8.643 Y50.344 E241.55405
G1 X8.453 Y50.71 E241.56777
G1 X8.36 Y51.092 E241.58085
G1 X8.36 Y168.848 E245.49743
G1 X8.447 Y169.286 E245.51228
G1 X8.676 Y169.67 E245.52715
G1 X8.914 Y169.927 E245.5388
G1 X9.28 Y170.117 E245.55252
G1 X9.662 Y170.21 E245.56559
G1 X210.278 Y170.21 E252.23811
G1 X210.716 Y170.123 E252.25296
G1 X211.1 Y169.894 E252.26783
G1 X211.357 Y169.656 E252.27948
G1 X211.547 Y169.29 E252.2932
G1 X211.64 Y168.908 E252.30627
G1 X211.64 Y51.152 E256.22285
G1 X211.553 Y50.714 E256.23771
G1 X211.324 Y50.33 E256.25258
G1 X211.086 Y50.073 E256.26423
G1 X210.72 Y49.883 E256.27794
G1 X210.338 Y49.79 E256.29102
G1 X9.722 Y49.79 E262.96353
G0 F6000 X9.76 Y50.19
G1 F1200 X210.289 Y50.19 E269.63316
G1 X210.578 Y50.26 E269.64305
G1 X210.841 Y50.397 E269.65291
G1 X210.98 Y50.535 E269.65942
G1 X211.175 Y50.862 E269.67209
G1 X211.24 Y51.19 E269.68321
G1 X211.24 Y168.859 E273.59689
G1 X211.17 Y169.148 E273.60678
G1 X211.033 Y169.411 E273.61665
G1 X210.895 Y169.55 E273.62316
G1 X210.568 Y169.745 E273.63583
G1 X210.24 Y169.81 E273.64695
G1 X9.711 Y169.81 E280.31657
G1 X9.422 Y169.74 E280.32646
G1 X9.159 Y169.603 E280.33632
G1 X9.02 Y169.465 E280.34284
G1 X8.825 Y169.138 E280.3555
G1 X8.76 Y168.81 E280.36662
G1 X8.76 Y51.141 E284.28031
G1 X8.83 Y50.852 E284.2902
G1 X8.967 Y50.589 E284.30006
G1 X9.105 Y50.45 E284.30658
G1 X9.432 Y50.255 E284.31924
G1 X9.76 Y50.19 E284.33036
G0 F6000 X9.76 Y50.59
G1 F1200 X210.24 Y50.59 E290.99835
G1 X210.484 Y50.649 E291.0067
G1 X210.636 Y50.74 E291.01259
G1 X210.797 Y51.01 E291.02305
G1 X210.84 Y51.19 E291.0292
G1 X210.84 Y168.81 E294.94126
G1 X210.781 Y169.054 E294.94961
G1 X210.69 Y169.206 E294.9555
G1 X210.42 Y169.367 E294.96596
G1 X210.24 Y169.41 E294.97211
G1 X9.76 Y169.41 E301.64011
G1 X9.516 Y169.351 E301.64846
G1 X9.364 Y169.26 E301.65435
G1 X9.203 Y168.99 E301.6648
G1 X9.16 Y168.81 E301.67096
G1 X9.16 Y51.19 E305.58302
G1 X9.219 Y50.946 E305.59137
G1 X9.31 Y50.794 E305.59726
G1 X9.58 Y50.633 E305.60771
G1 X9.76 Y50.59 E305.61387
G0 F6000 X9.76 Y50.99
G1 F1200 X210.24 Y50.99 E312.28186
G1 X210.359 Y51.029 E312.28603
G1 X210.44 Y51.19 E312.29202
G1 X210.44 Y168.81 E316.20408
G1 X210.401 Y168.929 E316.20824
G1 X210.24 Y169.01 E316.21424
G1 X9.76 Y169.01 E322.88223
G1 X9.641 Y168.971 E322.88639
G1 X9.56 Y168.81 E322.89239
G1 X9.56 Y51.19 E326.80444
G1 X9.599 Y51.071 E326.80861
G1 X9.76 Y50.99 E326.8146
G1 F2700 E321.8146
;MESH:Eduboard_3D_Gehause.stl
G0 F6000 X10.56 Y51.99
G0 X209.64 Y168.21
;TYPE:WALL-INNER
G1 F2700 E326.8146
G1 F1200 X209.64 Y51.79 E330.68675
G1 X10.36 Y51.79 E337.31483
G1 X10.36 Y168.21 E341.18697
G1 X209.64 Y168.21 E347.81505
G0 F6000 X210.04 Y168.61
;TYPE:WALL-OUTER
G1 F1200 X210.04 Y51.39 E351.71381
G1 X9.96 Y51.39 E358.36849
G1 X9.96 Y168.61 E362.26725
G1 X210.04 Y168.61 E368.92194
G0 F6000 X209.77 Y168.34
G0 X209.54 Y167.85
G0 X209.28 Y167.85
;TYPE:SKIN
G1 F1200 X10.72 Y167.85 E375.52607
G1 X10.72 Y52.15 E379.37427
G1 X209.28 Y52.15 E385.9784
G1 X209.28 Y167.85 E389.8266
G1 F2700 E384.8266
G0 F6000 X209.54 Y167.85
G0 X209.54 Y52.95
G0 X209.079 Y52.95
G1 F2700 E389.8266
G1 F1200 X208.479 Y52.349 E389.85484
G0 F6000 X207.913 Y52.349
G1 F1200 X209.079 Y53.515 E389.90969
G0 F6000 X209.079 Y54.081
G1 F1200 X207.347 Y52.349 E389.99115
G0 F6000 X206.782 Y52.349
G1 F1200 X209.079 Y54.647 E390.09922
G0 F6000 X209.079 Y55.213
G1 F1200 X206.216 Y52.349 E390.23391
G0 F6000 X205.65 Y52.349
G1 F1200 X209.079 Y55.778 E390.3952
G0 F6000 X209.079 Y56.344
G1 F1200 X205.085 Y52.349 E390.58309
G0 F6000 X204.519 Y52.349
G1 F1200 X209.079 Y56.91 E390.7976
G0 F6000 X209.079 Y57.475
G1 F1200 X203.953 Y52.349 E391.03871
G0 F6000 X203.387 Y52.349
G1 F1200 X209.079 Y58.041 E391.30645
G0 F6000 X209.079 Y58.607
G1 F1200 X202.822 Y52.349 E391.60078
G0 F6000 X202.256 Y52.349
G1 F1200 X209.079 Y59.172 E391.92171
G0 F6000 X209.079 Y59.738
G1 F1200 X201.69 Y52.349 E392.26927
G0 F6000 X201.125 Y52.349
G1 F1200 X209.079 Y60.304 E392.64343
G0 F6000 X209.079 Y60.869
G1 F1200 X200.559 Y52.349 E393.04418
G0 F6000 X199.993 Y52.349
G1 F1200 X209.079 Y61.435 E393.47156
G0 F6000 X209.079 Y62.001
G1 F1200 X199.428 Y52.349 E393.92553
G0 F6000 X198.862 Y52.349
G1 F1200 X209.079 Y62.566 E394.40611
G0 F6000 X209.079 Y63.132
G1 F1200 X198.296 Y52.349 E394.91331
G0 F6000 X197.731 Y52.349
G1 F1200 X209.079 Y63.698 E395.44711
G0 F6000 X209.079 Y64.263
G1 F1200 X197.165 Y52.349 E396.00751
G0 F6000 X196.599 Y52.349
G1 F1200 X209.079 Y64.829 E396.59453
G0 F6000 X209.079 Y65.395
G1 F1200 X196.034 Y52.349 E397.20815
G0 F6000 X195.468 Y52.349
G1 F1200 X209.079 Y65.961 E397.84839
G0 F6000 X209.079 Y66.526
G1 F1200 X194.902 Y52.349 E398.51523
G0 F6000 X194.336 Y52.349
G1 F1200 X209.079 Y67.092 E399.2087
G0 F6000 X209.079 Y67.658
G1 F1200 X193.771 Y52.349 E399.92876
G0 F6000 X193.205 Y52.349
G1 F1200 X209.079 Y68.223 E400.67543
G0 F6000 X209.079 Y68.789
G1 F1200 X192.639 Y52.349 E401.44872
G0 F6000 X192.074 Y52.349
G1 F1200 X209.079 Y69.355 E402.2486
G0 F6000 X209.079 Y69.92
G1 F1200 X191.508 Y52.349 E403.07509
G0 F6000 X190.942 Y52.349
G1 F1200 X209.079 Y70.486 E403.9282
G0 F6000 X209.079 Y71.052
G1 F1200 X190.377 Y52.349 E404.80791
G0 F6000 X189.811 Y52.349
G1 F1200 X209.079 Y71.617 E405.71421
G0 F6000 X209.079 Y72.183
G1 F1200 X189.245 Y52.349 E406.64714
G0 F6000 X188.68 Y52.349
G1 F1200 X209.079 Y72.749 E407.60667
G0 F6000 X209.079 Y73.314
G1 F1200 X188.114 Y52.349 E408.5928
G0 F6000 X187.548 Y52.349
G1 F1200 X209.079 Y73.88 E409.60556
G0 F6000 X209.079 Y74.446
G1 F1200 X186.983 Y52.349 E410.64491
G0 F6000 X186.417 Y52.349
G1 F1200 X209.079 Y75.012 E411.71088
G0 F6000 X209.079 Y75.577
G1 F1200 X185.851 Y52.349 E412.80346
G0 F6000 X185.286 Y52.349
G1 F1200 X209.079 Y76.143 E413.92263
G0 F6000 X209.079 Y76.709
G1 F1200 X184.72 Y52.349 E415.06843
G0 F6000 X184.154 Y52.349
G1 F1200 X209.079 Y77.274 E416.24082
G0 F6000 X209.079 Y77.84
G1 F1200 X183.588 Y52.349 E417.43984
G0 F6000 X183.023 Y52.349
G1 F1200 X209.079 Y78.406 E418.66546
G0 F6000 X209.079 Y78.971
G1 F1200 X182.457 Y52.349 E419.91767
G0 F6000 X181.891 Y52.349
G1 F1200 X209.079 Y79.537 E421.19651
G0 F6000 X209.079 Y80.103
G1 F1200 X181.326 Y52.349 E422.50195
G0 F6000 X180.76 Y52.349
G1 F1200 X209.079 Y80.668 E423.83399
G0 F6000 X209.079 Y81.234
G1 F1200 X180.194 Y52.349 E425.19265
G0 F6000 X179.629 Y52.349
G1 F1200 X209.079 Y81.8 E426.57792
G0 F6000 X209.079 Y82.365
G1 F1200 X179.063 Y52.349 E427.98978
G0 F6000 X178.497 Y52.349
G1 F1200 X209.079 Y82.931 E429.42826
