;FLAVOR:Marlin
;TIME:42109
;Filament used: 32.3694m
;Layer height: 0.2
;MINX:3.2
;MINY:23.2
;MINZ:0.2
;MAXX:216.8
;MAXY:196.8
;MAXZ:11
;Generated with Cura_SteamEngine 5.3.0
M140 S50
M105
M190 S50
M104 S200
M105
M109 S200
M82 ;absolute extrusion mode
; Ender 3 Custom Start G-code
G92 E0 ; Reset Extruder
G28 ; Home all axes
G1 Z2.0 F3000 ; Move Z Axis up little to prevent scratching of Heat Bed
G1 X0.1 Y20 Z0.3 F5000.0 ; Move to start position
G1 X0.1 Y200.0 Z0.3 F1500.0 E15 ; Draw the first line
G1 X0.4 Y200.0 Z0.3 F5000.0 ; Move to side a little
G1 X0.4 Y20 Z0.3 F1500.0 E30 ; Draw the second line
G92 E0 ; Reset Extruder
G1 Z2.0 F3000 ; Move Z Axis up little to prevent scratching of Heat Bed
G1 X5 Y20 Z0.3 F5000.0 ; Move over to prevent blob squish
G92 E0
G92 E0
G1 F2700 E-5
;LAYER_COUNT:55
;LAYER:0
M107
G0 F6000 X4.376 Y23.309 Z0.2
;TYPE:SKIRT
G1 F2700 E0
G1 F1200 X4.924 Y23.2 E0.01858
G1 X215.148 Y23.2 E7.01066
G1 X215.619 Y23.315 E7.02679
G1 X216.092 Y23.56 E7.04451
G1 X216.408 Y23.901 E7.05997
G1 X216.691 Y24.376 E7.07836
G1 X216.8 Y24.924 E7.09694
G1 X216.8 Y195.148 E12.75861
G1 X216.685 Y195.619 E12.77474
G1 X216.44 Y196.092 E12.79246
G1 X216.099 Y196.408 E12.80792
G1 X215.624 Y196.691 E12.82631
G1 X215.076 Y196.8 E12.84489
G1 X4.852 Y196.8 E19.83697
G1 X4.381 Y196.685 E19.8531
G1 X3.908 Y196.44 E19.87082
G1 X3.592 Y196.099 E19.88628
G1 X3.309 Y195.624 E19.90467
G1 X3.2 Y195.076 E19.92325
G1 X3.2 Y24.852 E25.58493
G1 X3.315 Y24.381 E25.60105
G1 X3.56 Y23.908 E25.61877
G1 X3.901 Y23.592 E25.63423
G1 X4.376 Y23.309 E25.65262
G0 F6000 X4.524 Y23.687
G1 F1200 X4.14 Y23.916 E25.66749
G1 X3.883 Y24.154 E25.67914
G1 X3.693 Y24.52 E25.69286
G1 X3.6 Y24.902 E25.70593
G1 X3.6 Y195.038 E31.36468
G1 X3.687 Y195.476 E31.37953
G1 X3.916 Y195.86 E31.3944
G1 X4.154 Y196.117 E31.40605
G1 X4.52 Y196.307 E31.41977
G1 X4.902 Y196.4 E31.43285
G1 X215.038 Y196.4 E38.422
G1 X215.476 Y196.313 E38.43685
G1 X215.86 Y196.084 E38.45172
G1 X216.117 Y195.846 E38.46337
G1 X216.307 Y195.48 E38.47709
G1 X216.4 Y195.098 E38.49016
G1 X216.4 Y24.962 E44.14891
G1 X216.313 Y24.524 E44.16376
G1 X216.084 Y24.14 E44.17863
G1 X215.846 Y23.883 E44.19028
G1 X215.48 Y23.693 E44.204
G1 X215.098 Y23.6 E44.21708
G1 X4.962 Y23.6 E51.20623
G1 X4.524 Y23.687 E51.22108
G0 F6000 X4.672 Y24.065
G1 F1200 X5 Y24 E51.2322
G1 X215.049 Y24 E58.21846
G1 X215.338 Y24.07 E58.22835
G1 X215.601 Y24.207 E58.23821
G1 X215.74 Y24.345 E58.24473
G1 X215.935 Y24.672 E58.25739
G1 X216 Y25 E58.26851
G1 X216 Y195.049 E63.92436
G1 X215.93 Y195.338 E63.93425
G1 X215.793 Y195.601 E63.94412
G1 X215.655 Y195.74 E63.95063
G1 X215.328 Y195.935 E63.9633
G1 X215 Y196 E63.97442
G1 X4.951 Y196 E70.96067
G1 X4.662 Y195.93 E70.97056
G1 X4.399 Y195.793 E70.98043
G1 X4.26 Y195.655 E70.98694
G1 X4.065 Y195.328 E70.99961
G1 X4 Y195 E71.01073
G1 X4 Y24.951 E76.66658
G1 X4.07 Y24.662 E76.67647
G1 X4.207 Y24.399 E76.68633
G1 X4.345 Y24.26 E76.69285
G1 X4.672 Y24.065 E76.70551
G0 F6000 X5 Y24.4
G1 F1200 X215 Y24.4 E83.69014
G1 X215.244 Y24.459 E83.69849
G1 X215.396 Y24.55 E83.70438
G1 X215.557 Y24.82 E83.71484
G1 X215.6 Y25 E83.72099
G1 X215.6 Y195 E89.37521
G1 X215.541 Y195.244 E89.38356
G1 X215.45 Y195.396 E89.38946
G1 X215.18 Y195.557 E89.39991
G1 X215 Y195.6 E89.40607
G1 X5 Y195.6 E96.3907
G1 X4.756 Y195.541 E96.39904
G1 X4.604 Y195.45 E96.40494
G1 X4.443 Y195.18 E96.41539
G1 X4.4 Y195 E96.42155
G1 X4.4 Y25 E102.07577
G1 X4.459 Y24.756 E102.08412
G1 X4.55 Y24.604 E102.09001
G1 X4.82 Y24.443 E102.10047
G1 X5 Y24.4 E102.10662
G0 F6000 X5 Y24.8
G1 F1200 X215 Y24.8 E109.09125
G1 X215.119 Y24.839 E109.09542
G1 X215.2 Y25 E109.10141
G1 X215.2 Y195 E114.75563
G1 X215.161 Y195.119 E114.7598
G1 X215 Y195.2 E114.76579
G1 X5 Y195.2 E121.75042
G1 X4.881 Y195.161 E121.75459
G1 X4.8 Y195 E121.76058
G1 X4.8 Y25 E127.4148
G1 X4.839 Y24.881 E127.41897
G1 X5 Y24.8 E127.42496
G1 F2700 E122.42496
;MESH:double_loch_v2.stl
G0 F6000 X5.8 Y25.8
G0 X214.4 Y194.4
;TYPE:WALL-INNER
G1 F2700 E127.42496
G1 F1200 X214.4 Y25.6 E133.03927
G1 X5.6 Y25.6 E139.98399
G1 X5.6 Y194.4 E145.5983
G1 X214.4 Y194.4 E152.54302
G0 F6000 X214.8 Y194.8
;TYPE:WALL-OUTER
G1 F1200 X214.8 Y25.2 E158.18394
G1 X5.2 Y25.2 E165.15526
G1 X5.2 Y194.8 E170.79618
G1 X214.8 Y194.8 E177.7675
G0 F6000 X214.53 Y194.53
G0 X214.3 Y194.04
G0 X214.04 Y194.04
;TYPE:SKIN
G1 F1200 X5.96 Y194.04 E184.68827
G1 X5.96 Y25.96 E190.27864
G1 X214.04 Y25.96 E197.19941
G1 X214.04 Y194.04 E202.78977
G1 F2700 E197.78977
G0 F6000 X214.3 Y194.04
G0 X214.3 Y26.597
G0 X213.839 Y26.597
G1 F2700 E202.78977
G1 F1200 X213.401 Y26.16 E202.81035
G0 F6000 X212.836 Y26.16
G1 F1200 X213.839 Y27.163 E202.85753
G0 F6000 X213.839 Y27.729
G1 F1200 X212.27 Y26.16 E202.93133
G0 F6000 X211.704 Y26.16
G1 F1200 X213.839 Y28.294 E203.03173
G0 F6000 X213.839 Y28.86
G1 F1200 X211.139 Y26.16 E203.15873
G0 F6000 X210.573 Y26.16
G1 F1200 X213.839 Y29.426 E203.31235
G0 F6000 X213.839 Y29.991
G1 F1200 X210.007 Y26.16 E203.49257
G0 F6000 X209.442 Y26.16
G1 F1200 X213.839 Y30.557 E203.69939
G0 F6000 X213.839 Y31.123
G1 F1200 X208.876 Y26.16 E203.93284
G0 F6000 X208.31 Y26.16
G1 F1200 X213.839 Y31.688 E204.19288
G0 F6000 X213.839 Y32.254
G1 F1200 X207.745 Y26.16 E204.47952
G0 F6000 X207.179 Y26.16
G1 F1200 X213.839 Y32.82 E204.79279
G0 F6000 X213.839 Y33.386
G1 F1200 X206.613 Y26.16 E205.13268
G0 F6000 X206.048 Y26.16
G1 F1200 X213.839 Y33.951 E205.49914
G0 F6000 X213.839 Y34.517
G1 F1200 X205.482 Y26.16 E205.89223
G0 F6000 X204.916 Y26.16
G1 F1200 X213.839 Y35.083 E206.31194
G0 F6000 X213.839 Y35.648
G1 F1200 X204.351 Y26.16 E206.75823
G0 F6000 X203.785 Y26.16
G1 F1200 X213.839 Y36.214 E207.23114
G0 F6000 X213.839 Y36.78
G1 F1200 X203.219 Y26.16 E207.73067
G0 F6000 X202.653 Y26.16
G1 F1200 X213.839 Y37.345 E208.2568
G0 F6000 X213.839 Y37.911
G1 F1200 X202.088 Y26.16 E208.80953
G0 F6000 X201.522 Y26.16
G1 F1200 X213.839 Y38.477 E209.38889
G0 F6000 X213.839 Y39.042
G1 F1200 X200.956 Y26.16 E209.99484
G0 F6000 X200.391 Y26.16
G1 F1200 X213.839 Y39.608 E210.62739
G0 F6000 X213.839 Y40.174
G1 F1200 X199.825 Y26.16 E211.28657
G0 F6000 X199.259 Y26.16
G1 F1200 X213.839 Y40.739 E211.97234
G0 F6000 X213.839 Y41.305
G1 F1200 X198.694 Y26.16 E212.68472
G0 F6000 X198.128 Y26.16
G1 F1200 X213.839 Y41.871 E213.42371
G0 F6000 X213.839 Y42.437
G1 F1200 X197.562 Y26.16 E214.18933
G0 F6000 X196.997 Y26.16
G1 F1200 X213.839 Y43.002 E214.98153
G0 F6000 X213.839 Y43.568
G1 F1200 X196.431 Y26.16 E215.80035
G0 F6000 X195.865 Y26.16
G1 F1200 X213.839 Y44.134 E216.64579
G0 F6000 X213.839 Y44.699
G1 F1200 X195.3 Y26.16 E217.51781
G0 F6000 X194.734 Y26.16
G1 F1200 X213.839 Y45.265 E218.41645
G0 F6000 X213.839 Y45.831
G1 F1200 X194.168 Y26.16 E219.34171
G0 F6000 X193.603 Y26.16
G1 F1200 X213.839 Y46.396 E220.29355
G0 F6000 X213.839 Y46.962
G1 F1200 X193.037 Y26.16 E221.27202
G0 F6000 X192.471 Y26.16
G1 F1200 X213.839 Y47.528 E222.2771
G0 F6000 X213.839 Y48.093
G1 F1200 X191.905 Y26.16 E223.30879
G0 F6000 X191.34 Y26.16
G1 F1200 X213.839 Y48.659 E224.36707
G0 F6000 X213.839 Y49.225
G1 F1200 X190.774 Y26.16 E225.45198
G0 F6000 X190.208 Y26.16
G1 F1200 X213.839 Y49.79 E226.56348
G0 F6000 X213.839 Y50.356
G1 F1200 X189.643 Y26.16 E227.70159
G0 F6000 X189.077 Y26.16
G1 F1200 X213.839 Y50.922 E228.86632
G0 F6000 X213.839 Y51.487
G1 F1200 X188.511 Y26.16 E230.05764
G0 F6000 X187.946 Y26.16
G1 F1200 X213.839 Y52.053 E231.27557
G0 F6000 X213.839 Y52.619
G1 F1200 X187.38 Y26.16 E232.52012
G0 F6000 X186.814 Y26.16
G1 F1200 X213.839 Y53.185 E233.7913
G0 F6000 X213.839 Y53.75
G1 F1200 X186.249 Y26.16 E235.08904
G0 F6000 X185.683 Y26.16
G1 F1200 X213.839 Y54.316 E236.41342
G0 F6000 X213.839 Y54.882
G1 F1200 X185.117 Y26.16 E237.76441
G0 F6000 X184.552 Y26.16
G1 F1200 X213.839 Y55.447 E239.14198
G0 F6000 X213.839 Y56.013
G1 F1200 X183.986 Y26.16 E240.54618
G0 F6000 X183.42 Y26.16
G1 F1200 X213.839 Y56.579 E241.97699
G0 F6000 X213.839 Y57.144
G1 F1200 X182.854 Y26.16 E243.43441
G0 F6000 X182.289 Y26.16
G1 F1200 X213.839 Y57.71 E244.91842
G0 F6000 X213.839 Y58.276
G1 F1200 X181.723 Y26.16 E246.42906
G0 F6000 X181.157 Y26.16
G1 F1200 X213.839 Y58.841 E247.9663
G0 F6000 X213.839 Y59.407
G1 F1200 X180.592 Y26.16 E249.53014
G0 F6000 X180.026 Y26.16
G1 F1200 X213.839 Y59.973 E251.1206
G0 F6000 X213.839 Y60.538
G1 F1200 X179.46 Y26.16 E252.73765
G0 F6000 X178.895 Y26.16
G1 F1200 X213.839 Y61.104 E254.38131
G0 F6000 X213.839 Y61.67
G1 F1200 X178.329 Y26.16 E256.05159
G0 F6000 X177.763 Y26.16
G1 F1200 X213.839 Y62.236 E257.7485
G0 F6000 X213.839 Y62.801
G1 F1200 X177.198 Y26.16 E259.47198
G0 F6000 X176.632 Y26.16
G1 F1200 X213.839 Y63.367 E261.22208
G0 F6000 X213.839 Y63.933
G1 F1200 X176.066 Y26.16 E262.99881
G0 F6000 X175.501 Y26.16
G1 F1200 X213.839 Y64.498 E264.80211
G0 F6000 X213.839 Y65.064
G1 F1200 X174.935 Y26.16 E266.63204
G0 F6000 X174.369 Y26.16
G1 F1200 X213.839 Y65.63 E268.48858
G0 F6000 X213.839 Y66.195
G1 F1200 X173.804 Y26.16 E270.37171
G0 F6000 X173.238 Y26.16
G1 F1200 X213.839 Y66.761 E272.28145
G0 F6000 X213.839 Y67.327
G1 F1200 X172.672 Y26.16 E274.21782
G0 F6000 X172.106 Y26.16
G1 F1200 X213.839 Y67.892 E276.18079
G0 F6000 X213.839 Y68.458
G1 F1200 X171.541 Y26.16 E278.17036
G0 F6000 X170.975 Y26.16
G1 F1200 X213.839 Y69.024 E280.18655
G0 F6000 X213.839 Y69.589
G1 F1200 X170.409 Y26.16 E282.22934
G0 F6000 X169.844 Y26.16
G1 F1200 X213.839 Y70.155 E284.29873
G0 F6000 X213.839 Y70.721
G1 F1200 X169.278 Y26.16 E286.39474
G0 F6000 X168.712 Y26.16
G1 F1200 X213.839 Y71.286 E288.51736
G0 F6000 X213.839 Y71.852
G1 F1200 X168.147 Y26.16 E290.66657
G0 F6000 X167.581 Y26.16
G1 F1200 X213.839 Y72.418 E292.8424
G0 F6000 X213.839 Y72.984
G1 F1200 X167.015 Y26.16 E295.04486
G0 F6000 X166.45 Y26.16
G1 F1200 X213.839 Y73.549 E297.27389
G0 F6000 X213.839 Y74.115
G1 F1200 X165.884 Y26.16 E299.52955
G0 F6000 X165.318 Y26.16
G1 F1200 X213.839 Y74.681 E301.81183
G0 F6000 X213.839 Y75.246
G1 F1200 X164.753 Y26.16 E304.12068
G0 F6000 X164.187 Y26.16
G1 F1200 X213.839 Y75.812 E306.45616
G0 F6000 X213.839 Y76.378
G1 F1200 X163.621 Y26.16 E308.81826
G0 F6000 X163.055 Y26.16
G1 F1200 X213.839 Y76.943 E311.20696
G0 F6000 X213.839 Y77.509
G1 F1200 X162.49 Y26.16 E313.62226
G0 F6000 X161.924 Y26.16
G1 F1200 X213.839 Y78.075 E316.06418
G0 F6000 X213.839 Y78.64
G1 F1200 X161.358 Y26.16 E318.53271
G0 F6000 X160.793 Y26.16
G1 F1200 X213.839 Y79.206 E321.02783
G0 F6000 X213.839 Y79.772
G1 F1200 X160.227 Y26.16 E323.54957
G0 F6000 X159.661 Y26.16
G1 F1200 X213.839 Y80.337 E326.09792
G0 F6000 X213.839 Y80.903
G1 F1200 X159.096 Y26.16 E328.67286
G0 F6000 X158.53 Y26.16
G1 F1200 X213.839 Y81.469 E331.27442
G0 F6000 X213.839 Y82.034
G1 F1200 X157.964 Y26.16 E333.90259
G0 F6000 X157.399 Y26.16
G1 F1200 X213.839 Y82.6 E336.55735
G0 F6000 X213.839 Y83.166
G1 F1200 X156.833 Y26.16 E339.23874
G0 F6000 X156.267 Y26.16
G1 F1200 X213.839 Y83.732 E341.94675
G0 F6000 X213.839 Y84.297
G1 F1200 X155.702 Y26.16 E344.68134
G0 F6000 X155.136 Y26.16
G1 F1200 X213.839 Y84.863 E347.44255
G0 F6000 X213.839 Y85.429
G1 F1200 X154.57 Y26.16 E350.23038
G0 F6000 X154.005 Y26.16
G1 F1200 X213.839 Y85.994 E353.04479
G0 F6000 X213.839 Y86.56
G1 F1200 X153.439 Y26.16 E355.88582
G0 F6000 X152.873 Y26.16
G1 F1200 X213.839 Y87.126 E358.75347
G0 F6000 X213.839 Y87.691
G1 F1200 X152.307 Y26.16 E361.64772
G0 F6000 X151.742 Y26.16
G1 F1200 X213.839 Y88.257 E364.56858
G0 F6000 X213.839 Y88.823
G1 F1200 X151.176 Y26.16 E367.51605
G0 F6000 X150.61 Y26.16
G1 F1200 X213.839 Y89.388 E370.49013
G0 F6000 X213.839 Y89.954
G1 F1200 X150.045 Y26.16 E373.4908
G0 F6000 X149.479 Y26.16
G1 F1200 X213.839 Y90.52 E376.5181
G0 F6000 X213.839 Y91.085
G1 F1200 X148.913 Y26.16 E379.57199
G0 F6000 X148.348 Y26.16
G1 F1200 X213.839 Y91.651 E382.65249
G0 F6000 X213.839 Y92.217
G1 F1200 X147.782 Y26.16 E385.75961
G0 F6000 X147.216 Y26.16
G1 F1200 X213.839 Y92.783 E388.89335
G0 F6000 X213.839 Y93.348
G1 F1200 X146.651 Y26.16 E392.05367
G0 F6000 X146.085 Y26.16
G1 F1200 X213.839 Y93.914 E395.24061
G0 F6000 X213.839 Y94.48
G1 F1200 X145.519 Y26.16 E398.45417
G0 F6000 X144.954 Y26.16
G1 F1200 X213.839 Y95.045 E401.69431
G0 F6000 X213.839 Y95.611
G1 F1200 X144.388 Y26.16 E404.96107
G0 F6000 X143.822 Y26.16
G1 F1200 X213.839 Y96.177 E408.25446
G0 F6000 X213.839 Y96.742
G1 F1200 X143.257 Y26.16 E411.57442
G0 F6000 X142.691 Y26.16
G1 F1200 X213.839 Y97.308 E414.921
G0 F6000 X213.839 Y97.874
G1 F1200 X142.125 Y26.16 E418.29421
G0 F6000 X141.559 Y26.16
G1 F1200 X213.839 Y98.439 E421.69402
G0 F6000 X213.839 Y99.005
G1 F1200 X140.994 Y26.16 E425.12042
G0 F6000 X140.428 Y26.16
G1 F1200 X213.839 Y99.571 E428.57345
G0 F6000 X213.839 Y100.136
G1 F1200 X139.862 Y26.16 E432.05308
G0 F6000 X139.297 Y26.16
G1 F1200 X213.839 Y100.702 E435.5593
G0 F6000 X213.839 Y101.268
G1 F1200 X138.731 Y26.16 E439.09215
G0 F6000 X138.165 Y26.16
G1 F1200 X213.839 Y101.833 E442.6516
G0 F6000 X213.839 Y102.399
G1 F1200 X137.6 Y26.16 E446.23765
G0 F6000 X137.034 Y26.16
G1 F1200 X213.839 Y102.965 E449.85032
G0 F6000 X213.839 Y103.531
G1 F1200 X136.468 Y26.16 E453.48962
G0 F6000 X135.903 Y26.16
G1 F1200 X213.839 Y104.096 E457.15549
G0 F6000 X213.839 Y104.662
G1 F1200 X135.337 Y26.16 E460.84798
G0 F6000 X134.771 Y26.16
G1 F1200 X213.839 Y105.228 E464.5671
G0 F6000 X213.839 Y105.793
G1 F1200 X134.206 Y26.16 E468.31279
G0 F6000 X133.64 Y26.16
G1 F1200 X213.839 Y106.359 E472.08511
G0 F6000 X213.839 Y106.925
G1 F1200 X133.074 Y26.16 E475.88404
G0 F6000 X132.508 Y26.16
G1 F1200 X213.839 Y107.49 E479.70958
G0 F6000 X213.839 Y108.056
G1 F1200 X131.943 Y26.16 E483.56172
G0 F6000 X131.377 Y26.16
G1 F1200 X213.839 Y108.622 E487.44048
G0 F6000 X213.839 Y109.187
G1 F1200 X130.811 Y26.16 E491.34584
G0 F6000 X130.246 Y26.16
G1 F1200 X213.839 Y109.753 E495.2778
G0 F6000 X213.839 Y110.319
G1 F1200 X129.68 Y26.16 E499.23638
G0 F6000 X129.114 Y26.16
G1 F1200 X213.839 Y110.884 E503.22156
G0 F6000 X213.839 Y111.45
G1 F1200 X128.549 Y26.16 E507.23334
G0 F6000 X127.983 Y26.16
G1 F1200 X213.839 Y112.016 E511.27174
G0 F6000 X213.839 Y112.582
G1 F1200 X127.417 Y26.16 E515.33677
G0 F6000 X126.852 Y26.16
G1 F1200 X213.839 Y113.147 E519.42837
G0 F6000 X213.839 Y113.713
G1 F1200 X126.286 Y26.16 E523.54659
G0 F6000 X125.72 Y26.16
G1 F1200 X213.839 Y114.279 E527.69144
G0 F6000 X213.839 Y114.844
G1 F1200 X125.155 Y26.16 E531.86286
G0 F6000 X124.589 Y26.16
G1 F1200 X213.839 Y115.41 E536.06091
G0 F6000 X213.839 Y115.976
G1 F1200 X124.023 Y26.16 E540.28558
G0 F6000 X123.458 Y26.16
G1 F1200 X213.839 Y116.541 E544.53683
G0 F6000 X213.839 Y117.107
G1 F1200 X122.892 Y26.16 E548.81469
G0 F6000 X122.326 Y26.16
G1 F1200 X213.839 Y117.673 E553.11918
G0 F6000 X213.839 Y118.238
G1 F1200 X121.76 Y26.16 E557.45027
G0 F6000 X121.195 Y26.16
G1 F1200 X213.839 Y118.804 E561.80796
G0 F6000 X213.839 Y119.37
G1 F1200 X120.629 Y26.16 E566.19228
G0 F6000 X120.063 Y26.16
G1 F1200 X213.839 Y119.935 E570.60319
G0 F6000 X213.839 Y120.501
G1 F1200 X119.498 Y26.16 E575.0407
G0 F6000 X118.932 Y26.16
G1 F1200 X213.839 Y121.067 E579.50483
G0 F6000 X213.839 Y121.632
G1 F1200 X118.366 Y26.16 E583.99557
G0 F6000 X117.801 Y26.16
G1 F1200 X213.839 Y122.198 E588.5129
G0 F6000 X213.839 Y122.764
G1 F1200 X117.235 Y26.16 E593.05686
G0 F6000 X116.669 Y26.16
G1 F1200 X213.839 Y123.33 E597.62744
G0 F6000 X213.839 Y123.895
G1 F1200 X116.104 Y26.16 E602.22459
G0 F6000 X115.538 Y26.16
G1 F1200 X213.839 Y124.461 E606.84837
G0 F6000 X213.839 Y125.027
G1 F1200 X114.972 Y26.16 E611.49877
G0 F6000 X114.407 Y26.16
G1 F1200 X213.839 Y125.592 E616.17575
G0 F6000 X213.839 Y126.158
G1 F1200 X113.841 Y26.16 E620.87935
